X: 10682
Q: "slow with Express:"
M: 2/4
L: 1/8
K: F
[|\
f>edc |
d>c Ac | f>edc | dA ze |\
f>edc | d>e Hf2 ga3 | F2G>A | cAAf |\


